**kern	**kern	**dynam
*part1	*part1	*part1
*staff2	*staff1	*
*I"Piano	*	*
*clefF4	*clefG2	*
*k[b-e-a-d-]	*k[b-e-a-d-]	*
=1	=1	=1
*^	*	*
(4G-X 4B-	2GGG-X 2GG-X	2g-X	.
4A- 4c-X	.	.	.
4B- 4d-	4GG-	4g-	.
=	=	=	=
4c-X> 4e->	2CC-X 2C-X	2g-X	.
4d-> 4f-X>	.	.	.
4e->)	4CC- 4C-	4g-	.
*v	*v	*	*
=	=	=
*	*^	*
2FFF 2FF	(4An 4fn	2e-	.
.	4B- 4gn	.	.
4FFF 4FF	4cn 4an	4e-	.
*	*v	*v	*
=	=	=
2BBB- 2BB-	4dn 4f 4b-	.
.	4e- 4an 4cc	.
4BBB- 4BB-	4f) 4b- 4ddn	.
=	=	=
!	!	!LO:DY:a
2BB- 2B-	(4f 4b- 4ddn	f
.	4g 4b- 4ee-	.
4BB- 4B-	4a-) 4dd 4ff	.
=	=	=
!	!	!LO:DY:a
2EE-	(4b- 4ee- 4gg	>
.	4cc 4ee- 4aa-	.
4E-	4dd-X 4ff 4bb-	.
=	=	=
2EE-	4b- 4dd- 4gg	.
.	4a- 4cc 4ff	.
4E-	4g 4b- 4ee-	]]
=	=	=
!	!	!LO:DY:a
2EE-	4f 4a- 4dd-	p
.	4e- 4g 4cc	.
4E-	4d-) 4f 4b-	.
=	=	=
*-	*-	*-
!!!system-decoration: {(s1,s2)}
!!!RDF**kern: > = above
